!!!OTL: Dreikönigslied (Band 1), S. 21
!!!id: P0779
**kern
*clefG2
*k[f#]
*G:
{4d
=1
4g
4g
4d
=2
8g
8g
4g
4b
=3
2b
4dd
=4
2g}
=5
{4b
=6
4b
4a
4a
=7
4a
4g
4f#
=8
4f#
4e
4e
=9
2d}
=10
{4d
=11
4g
4g
4d
=12
4g
4a
4b
=13
4d
4e
4f#
=14
2g}
==
*-
!!!minrhy: 8
!!!meters: 3/4 ]  ZZ[3
!!!cut: Dreikönigslied (Band 1), S. 21
!!!reg: Lothringen
!!!trd: PINCK, Louis: Verklingende Weisen, Bd 1, Metz 1928
!!!rhy1: X_  X_X_X_  XXX_X_  X__X_  X__
!!!rhy2: X_  X_X_X_  X_X_X_  X_X_X_  X__
!!!key: P0779  08  G 3/4 ]  ZZ[3
!!!mod: SECHSTONSKALA DUR ?]  AMBITUS[8
!!!kad: 1-51
!!!akz: 1131_32-7-5_11-51_
!!!fot: 'a__b__aw_
!!!for: 'a__b__b__
!!!fok: '^a_\__/__
!! PHRAS[AUFTAKTIG]
!!!fkt: geistliche, religiöse Lieder
!! LOTH VKL
!! PR[14] 2K[10] 2G[20] 3K[0] 3G[4] 4A[6] 4Ü[0] 5A[0] 6K[0] 6G[0]
!! 7K[0] 7G[0] 8A[0] MEHR[0] SI[40] ABS[50] SR[30] SP[10]
!! ST[0] 2k[12] 2g[32] 3k[0] 3g[0] 4d[2] 4ü[0] 5d[0] 6k[0] 6g[0]
!! 7k[0] 7g[0] 8d[0] mehr[0] si[46] dm[-6] sr[44] sp[2]
!! 1F[10] 2F[75] 3F[15] 4F[0] LF[0] 2P[0] 3P[0] 4P[0] TRI[0] DF[3] AB[52]
!! TF[0] U3K[0] U3[0] U4[0] U4Ü[0] U5[4] U6K[0] U6[0] U7K[8] U7[4]
!! N1[24] N2K[0] N2[14] N3K[22] N3[0] N4[16] N4Ü[0] N5[10] N6K[0] N6[0]
!!!n7k: 0] N7[0] O1[0] O2K[0] O2[0] O3K[0] O3[0] HÖ[0
